X: 1
T:Kesh Jig
M:6/8
L:1/8
C:Trad
R:Jig
K:G
GGG GAB | AAA ABd | edd gdd | edB dBA | GGG GAB | AAA ABd | edd gdB | AG
F G3 :|
|: BBB dBd | ege dBG | BBB dBG | ABA AGA | BBB dBd | ege dBd | gfg aga |
 bgg g3 :|
